style-guide/assets/wds-icons-sound-tiny.svg

<svg xmlns="http://www.w3.org/2000/svg" xmlns:xlink="http://www.w3.org/1999/xlink" width="12" height="12" viewBox="0 0 12 12">
  <defs>
    <path id="sound-a" d="M7,8 C6.448,8 6,7.552 6,7 L6,5 C6,4.448 6.448,4 7,4 C7.552,4 8,4.448 8,5 L8,7 C8,7.552 7.552,8 7,8 M3,11 C2.448,11 2,10.552 2,10 L2,9 L1,9 C0.448,9 0,8.552 0,8 L0,4 C0,3.448 0.448,3 1,3 L2,3 L2,2 C2,1.448 2.448,1 3,1 C3.552,1 4,1.448 4,2 L4,10 C4,10.552 3.552,11 3,11 M7,12 C6.448,12 6,11.552 6,11 C6,10.448 6.448,10 7,10 C8.654,10 10,8.654 10,7 L10,5 C10,3.346 8.654,2 7,2 C6.448,2 6,1.552 6,1 C6,0.448 6.448,0 7,0 C9.757,0 12,2.243 12,5 L12,7 C12,9.757 9.757,12 7,12"/>
  </defs>
  <use fill-rule="evenodd" xlink:href="#sound-a"/>
</svg>

<svg xmlns="http://www.w3.org/2000/svg" xmlns:xlink="http://www.w3.org/1999/xlink" viewBox="0 0 12 12">
  <defs>
    <path id="sound-a" d="M7 8a1 1 0 0 1-1-1V5a1 1 0 0 1 2 0v2a1 1 0 0 1-1 1m-4 3a1 1 0 0 1-1-1V9H1a1 1 0 0 1-1-1V4a1 1 0 0 1 1-1h1V2a1 1 0 0 1 2 0v8a1 1 0 0 1-1 1m4 1a1 1 0 0 1 0-2c1.654 0 3-1.346 3-3V5c0-1.654-1.346-3-3-3a1 1 0 0 1 0-2c2.757 0 5 2.243 5 5v2c0 2.757-2.243 5-5 5"/>
  </defs>
  <use fill-rule="evenodd" xlink:href="#sound-a"/>
</svg>
